src/standard/media/ebook.svg

<svg xmlns="http://www.w3.org/2000/svg" viewBox="0 0 36 36">
  <path d="M28 4.38H8a.61.61 0 0 0-.62.62v26a.61.61 0 0 0 .62.62h20a.61.61 0 0 0 .62-.62V5a.61.61 0 0 0-.62-.62Zm-.62 26H8.62V5.62h18.76Z"/>
  <path d="M17.76 8.58a.63.63 0 1 0-.2-1 .63.63 0 0 0 0 .88.48.48 0 0 0 .2.12ZM20 27.38h-4a.62.62 0 1 0 0 1.24h4a.62.62 0 0 0 0-1.24Zm-8-13.76h6a.62.62 0 0 0 0-1.24h-6a.62.62 0 0 0 0 1.24Zm0 3h12a.62.62 0 1 0 0-1.24H12a.62.62 0 0 0 0 1.24Zm0 3h12a.62.62 0 0 0 0-1.24H12a.62.62 0 0 0 0 1.24Zm0 3h12a.62.62 0 0 0 0-1.24H12a.62.62 0 1 0 0 1.24Z"/>
</svg>

<svg id="b35c3b54-458d-408d-bdca-a6e5e4ed44af" data-name="Icon" xmlns="http://www.w3.org/2000/svg" viewBox="0 0 36 36">
  <g>
    <path d="M28,4.38H8A.61.61,0,0,0,7.38,5V31a.61.61,0,0,0,.62.62H28a.61.61,0,0,0,.62-.62V5A.61.61,0,0,0,28,4.38Zm-.62,26H8.62V5.62H27.38Z"/>
    <path d="M17.76,8.58a.63.63,0,1,0-.2-1,.63.63,0,0,0,0,.88A.48.48,0,0,0,17.76,8.58Z"/>
    <path d="M20,27.38H16a.62.62,0,1,0,0,1.24h4a.62.62,0,0,0,0-1.24Z"/>
    <path d="M12,13.62h6a.62.62,0,0,0,0-1.24H12a.62.62,0,0,0,0,1.24Z"/>
    <path d="M12,16.62H24a.62.62,0,1,0,0-1.24H12a.62.62,0,0,0,0,1.24Z"/>
    <path d="M12,19.62H24a.62.62,0,0,0,0-1.24H12a.62.62,0,0,0,0,1.24Z"/>
    <path d="M12,22.62H24a.62.62,0,0,0,0-1.24H12a.62.62,0,1,0,0,1.24Z"/>
  </g>
</svg>
